symbols/web/signal_cellular_alt/materialsymbolsoutlined/signal_cellular_alt_wght100gradN25_48px.svg

<svg xmlns="http://www.w3.org/2000/svg" height="48" width="48"><path d="M13.85 36.7v-9.4h2.1v9.4Zm10.15 0V17.3h2.1v19.4Zm10.15 0V7.3h2.1v29.4Z"/></svg>

<svg xmlns="http://www.w3.org/2000/svg" height="48" width="48"><path d="M34.15 36.7V7.3H36.25V36.7ZM13.85 36.7V27.3H15.95V36.7ZM24 36.7V17.3H26.1V36.7Z"/></svg>
